actions/symbolic/distribute-horizontal-right-symbolic.svg

<?xml version="1.0" encoding="UTF-8" standalone="no"?>
<svg
   xmlns:dc="http://purl.org/dc/elements/1.1/"
   xmlns:cc="http://creativecommons.org/ns#"
   xmlns:rdf="http://www.w3.org/1999/02/22-rdf-syntax-ns#"
   xmlns:svg="http://www.w3.org/2000/svg"
   xmlns="http://www.w3.org/2000/svg"
   xmlns:xlink="http://www.w3.org/1999/xlink"
   xmlns:sodipodi="http://sodipodi.sourceforge.net/DTD/sodipodi-0.dtd"
   xmlns:inkscape="http://www.inkscape.org/namespaces/inkscape"
   id="svg57"
   version="1.1"
   width="16"
   height="16"
   sodipodi:docname="distribute-horizontal-right-symbolic.svg"
   inkscape:version="1.0 (1.0+r73+1)">
  <sodipodi:namedview
     inkscape:document-rotation="0"
     pagecolor="#ffffff"
     bordercolor="#666666"
     borderopacity="1"
     objecttolerance="10"
     gridtolerance="10"
     guidetolerance="10"
     inkscape:pageopacity="0"
     inkscape:pageshadow="2"
     inkscape:window-width="2560"
     inkscape:window-height="1377"
     id="namedview69"
     showgrid="false"
     inkscape:zoom="38.9375"
     inkscape:cx="5.1040705"
     inkscape:cy="4.9975829"
     inkscape:window-x="0"
     inkscape:window-y="30"
     inkscape:window-maximized="1"
     inkscape:current-layer="svg57" />
  <metadata
     id="metadata63">
    <rdf:RDF>
      <cc:Work
         rdf:about="">
        <dc:format>image/svg+xml</dc:format>
        <dc:type
           rdf:resource="http://purl.org/dc/dcmitype/StillImage" />
        <dc:title />
      </cc:Work>
    </rdf:RDF>
  </metadata>
  <defs
     id="defs61">
    <linearGradient
       y2="41.526306"
       y1="6.4736748"
       x2="23.99999"
       x1="23.99999"
       gradientUnits="userSpaceOnUse"
       gradientTransform="matrix(0.40540511,0,0,0.51351351,2.269687,-0.324319)"
       id="linearGradient1085">
      <stop
         id="stop1077"
         stop-color="#fff"
         offset="0" />
      <stop
         id="stop1079"
         stop-opacity=".235294"
         stop-color="#fff"
         offset="0.00000037" />
      <stop
         id="stop1081"
         stop-opacity=".156863"
         stop-color="#fff"
         offset="1" />
      <stop
         id="stop1083"
         stop-opacity=".392157"
         stop-color="#fff"
         offset="1" />
    </linearGradient>
    <linearGradient
       y2="41.526306"
       y1="6.4736748"
       x2="23.99999"
       x1="23.99999"
       gradientUnits="userSpaceOnUse"
       gradientTransform="matrix(0.40540511,0,0,0.51351351,2.269687,-0.324319)"
       id="linearGradient1075">
      <stop
         id="stop1067"
         stop-color="#fff"
         offset="0" />
      <stop
         id="stop1069"
         stop-opacity=".235294"
         stop-color="#fff"
         offset="0.00000077" />
      <stop
         id="stop1071"
         stop-opacity=".156863"
         stop-color="#fff"
         offset="1" />
      <stop
         id="stop1073"
         stop-opacity=".392157"
         stop-color="#fff"
         offset="1" />
    </linearGradient>
    <linearGradient
       id="linearGradient987">
      <stop
         id="stop983"
         offset="0"
         style="stop-color:#cc3b02;stop-opacity:1;" />
      <stop
         style="stop-color:#cc3b02;stop-opacity:1"
         offset="0.875"
         id="stop991" />
      <stop
         id="stop985"
         offset="1"
         style="stop-color:#cc3b02;stop-opacity:0;" />
    </linearGradient>
    <linearGradient
       id="linearGradient951">
      <stop
         id="stop947"
         offset="0"
         style="stop-color:#ffa154;stop-opacity:1;" />
      <stop
         style="stop-color:#ffa154;stop-opacity:0.92647058"
         offset="0.875"
         id="stop955" />
      <stop
         id="stop949"
         offset="1"
         style="stop-color:#ffa154;stop-opacity:0;" />
    </linearGradient>
    <linearGradient
       id="linearGradient874"
       gradientTransform="matrix(0.48571543,0,0,0.45629666,-34.78968,-5.734851)"
       gradientUnits="userSpaceOnUse"
       x1="25.132275"
       x2="25.132275"
       y1="0.98520601"
       y2="47.013336">
      <stop
         style="stop-color:#fafafa;stop-opacity:1"
         offset="0"
         stop-color="#f4f4f4"
         id="stop870" />
      <stop
         style="stop-color:#d4d4d4;stop-opacity:1"
         offset="1"
         stop-color="#dbdbdb"
         id="stop872" />
    </linearGradient>
    <linearGradient
       gradientTransform="matrix(-1,0,0,0.7965368,18,-1.5584415)"
       spreadMethod="reflect"
       gradientUnits="userSpaceOnUse"
       y2="1.9565217"
       x2="3.5515943"
       y1="12"
       x1="3.5515943"
       id="linearGradient953"
       xlink:href="#linearGradient951" />
    <linearGradient
       gradientTransform="matrix(-1,0,0,0.72727273,18,-0.72727271)"
       spreadMethod="reflect"
       gradientUnits="userSpaceOnUse"
       y2="1"
       x2="3.6243253"
       y1="12"
       x1="3.6243253"
       id="linearGradient989"
       xlink:href="#linearGradient987" />
    <linearGradient
       gradientTransform="matrix(-1,0,0,0.72727273,9,-0.72727273)"
       spreadMethod="reflect"
       gradientUnits="userSpaceOnUse"
       y2="1"
       x2="3.6243253"
       y1="12"
       x1="3.6243253"
       id="linearGradient989-5"
       xlink:href="#linearGradient987" />
    <linearGradient
       y2="-208.00011"
       x2="-69.999916"
       y1="-200.00011"
       x1="-69.999916"
       gradientTransform="matrix(-0.41666667,0,0,-1.2857143,-28.041616,-254.2857)"
       gradientUnits="userSpaceOnUse"
       id="linearGradient1061"
       xlink:href="#linearGradient874" />
    <linearGradient
       y2="-206.14285"
       x2="-73.999916"
       y1="-201.85712"
       x1="-73.999916"
       gradientTransform="matrix(-0.30000001,0,0,-1.3999916,-19.349964,-277.59827)"
       gradientUnits="userSpaceOnUse"
       id="linearGradient1063"
       xlink:href="#linearGradient1085" />
    <linearGradient
       spreadMethod="reflect"
       y2="1.9565217"
       x2="3.5515943"
       y1="12"
       x1="3.5515943"
       gradientTransform="matrix(-1,0,0,0.7965368,9,-1.5584415)"
       gradientUnits="userSpaceOnUse"
       id="linearGradient1065"
       xlink:href="#linearGradient951" />
  </defs>
  <linearGradient
     y2="47.013336"
     y1="0.98520601"
     x2="25.132275"
     x1="25.132275"
     gradientUnits="userSpaceOnUse"
     gradientTransform="matrix(0.48571543,0,0,0.45629666,-34.78968,-5.734851)"
     id="a">
    <stop
       id="stop2"
       stop-color="#f4f4f4"
       offset="0" />
    <stop
       id="stop4"
       stop-color="#dbdbdb"
       offset="1" />
  </linearGradient>
  <linearGradient
     y2="2.9062469"
     y1="50.786446"
     x2="-51.786404"
     x1="-51.786404"
     gradientUnits="userSpaceOnUse"
     gradientTransform="matrix(0.25378586,0,0,0.30501865,-43.521986,-5.539135)"
     id="b">
    <stop
       id="stop7"
       stop-opacity=".339506"
       offset="0" />
    <stop
       id="stop9"
       stop-opacity=".246914"
       offset="1" />
  </linearGradient>
  <linearGradient
     y2="41.526306"
     y1="6.4736748"
     x2="23.99999"
     x1="23.99999"
     gradientUnits="userSpaceOnUse"
     gradientTransform="matrix(0.40540511,0,0,0.51351351,2.269687,-0.324319)"
     id="c">
    <stop
       id="stop12"
       stop-color="#fff"
       offset="0" />
    <stop
       id="stop14"
       stop-opacity=".235294"
       stop-color="#fff"
       offset=".05838298" />
    <stop
       id="stop16"
       stop-opacity=".156863"
       stop-color="#fff"
       offset="1" />
    <stop
       id="stop18"
       stop-opacity=".392157"
       stop-color="#fff"
       offset="1" />
  </linearGradient>
  <linearGradient
     y2="-200.00011"
     y1="-208.00011"
     xlink:href="#b"
     x2="-73.999916"
     x1="-73.999916"
     gradientUnits="userSpaceOnUse"
     id="d" />
  <linearGradient
     gradientTransform="matrix(-0.30000001,0,0,-1.7999893,-10.349964,-359.19778)"
     y2="-206.22221"
     y1="-201.77774"
     xlink:href="#linearGradient1075"
     x2="-73.999916"
     x1="-73.999916"
     gradientUnits="userSpaceOnUse"
     id="e" />
  <linearGradient
     gradientTransform="matrix(-0.41666667,0,0,-1.5714286,-19.041616,-312.57142)"
     y2="-208.00011"
     y1="-200.00011"
     xlink:href="#linearGradient874"
     x2="-69.999916"
     x1="-69.999916"
     gradientUnits="userSpaceOnUse"
     id="f" />
  <linearGradient
     y2="136.99989"
     y1="128.99989"
     xlink:href="#b"
     x2="-479.99991"
     x1="-479.99991"
     gradientUnits="userSpaceOnUse"
     id="g" />
  <linearGradient
     gradientTransform="matrix(1,0,0,-1,491,143.99614)"
     y2="128.99989"
     y1="136.99989"
     xlink:href="#linearGradient874"
     x2="-475.99991"
     x1="-475.99991"
     gradientUnits="userSpaceOnUse"
     id="h" />
  <linearGradient
     gradientTransform="matrix(1,0,0,-1,491,143.99614)"
     y2="130.99989"
     y1="134.99989"
     xlink:href="#c"
     x2="-478.99991"
     x1="-478.99991"
     gradientUnits="userSpaceOnUse"
     id="i" />
  <linearGradient
     id="j">
    <stop
       id="stop27"
       stop-color="#ce5c00"
       offset="0" />
    <stop
       id="stop29"
       stop-opacity="0"
       stop-color="#ce5c00"
       offset="1" />
  </linearGradient>
  <linearGradient
     y2="489.35938"
     y1="489.35938"
     xlink:href="#j"
     x2="186.93732"
     x1="187.60938"
     gradientUnits="userSpaceOnUse"
     gradientTransform="rotate(180,197.99995,490.5)"
     id="k" />
  <linearGradient
     id="l">
    <stop
       id="stop33"
       stop-color="#fcaf3e"
       offset="0" />
    <stop
       id="stop35"
       stop-opacity="0"
       stop-color="#fcaf3e"
       offset="1" />
  </linearGradient>
  <linearGradient
     y2="489.54688"
     y1="489.54688"
     xlink:href="#l"
     x2="187.1716"
     x1="187.81554"
     gradientUnits="userSpaceOnUse"
     gradientTransform="rotate(180,197.99995,490.5)"
     id="m" />
  <linearGradient
     y2="489.35938"
     y1="489.35938"
     xlink:href="#j"
     x2="186.93732"
     x1="187.60938"
     gradientUnits="userSpaceOnUse"
     id="n" />
  <linearGradient
     y2="489.54688"
     y1="489.54688"
     xlink:href="#l"
     x2="187.1716"
     x1="187.81554"
     gradientUnits="userSpaceOnUse"
     id="o" />
  <path
     style="fill:#555761;stroke:none;stroke-width:1;stroke-linejoin:round;stroke-miterlimit:3;fill-opacity:0.93000001;opacity:0.1"
     id="path41"
     stroke-miterlimit="3"
     d="m 14.5,13.5 h -5 v -11 h 5 z" />
  <path
     id="path895"
     d="M 9.5 2 A 0.50005 0.50005 0 0 0 9 2.5 L 9 13.5 A 0.50005 0.50005 0 0 0 9.5 14 L 14.5 14 A 0.50005 0.50005 0 0 0 15 13.5 L 15 2.5 A 0.50005 0.50005 0 0 0 14.5 2 L 9.5 2 z M 10 3 L 14 3 L 14 13 L 10 13 L 10 3 z "
     style="color:#000000;font-style:normal;font-variant:normal;font-weight:normal;font-stretch:normal;font-size:medium;line-height:normal;font-family:sans-serif;font-variant-ligatures:normal;font-variant-position:normal;font-variant-caps:normal;font-variant-numeric:normal;font-variant-alternates:normal;font-variant-east-asian:normal;font-feature-settings:normal;font-variation-settings:normal;text-indent:0;text-align:start;text-decoration:none;text-decoration-line:none;text-decoration-style:solid;text-decoration-color:#000000;letter-spacing:normal;word-spacing:normal;text-transform:none;writing-mode:lr-tb;direction:ltr;text-orientation:mixed;dominant-baseline:auto;baseline-shift:baseline;text-anchor:start;white-space:normal;shape-padding:0;shape-margin:0;inline-size:0;clip-rule:nonzero;display:inline;overflow:visible;visibility:visible;isolation:auto;mix-blend-mode:normal;color-interpolation:sRGB;color-interpolation-filters:linearRGB;solid-color:#000000;solid-opacity:1;vector-effect:none;fill:#555761;fill-opacity:1;fill-rule:nonzero;stroke:none;stroke-width:1;stroke-linecap:butt;stroke-linejoin:round;stroke-miterlimit:3;stroke-dasharray:none;stroke-dashoffset:0;stroke-opacity:1;color-rendering:auto;image-rendering:auto;shape-rendering:auto;text-rendering:auto;enable-background:accumulate;stop-color:#000000;stop-opacity:1;opacity:1" />
  <path
     id="rect935"
     d="m 15.5,2e-8 h -2 V 16 h 2 z"
     style="opacity:1;vector-effect:none;fill:#555761;fill-opacity:1;stroke:none;stroke-width:1;stroke-linecap:butt;stroke-linejoin:miter;stroke-miterlimit:4;stroke-dasharray:none;stroke-dashoffset:0;stroke-opacity:1;marker:none;paint-order:normal" />
  <path
     style="fill:#555761;stroke:none;stroke-width:0.99999994;stroke-linejoin:round;stroke-miterlimit:3;fill-opacity:0.93000001;opacity:0.1"
     id="path41-0"
     stroke-miterlimit="3"
     d="m 5.5,12.5 h -5 V 3.5000001 h 5 z" />
  <path
     id="path891"
     d="M 0.5 3 A 0.50005 0.50005 0 0 0 0 3.5 L 0 12.5 A 0.50005 0.50005 0 0 0 0.5 13 L 5.5 13 A 0.50005 0.50005 0 0 0 6 12.5 L 6 3.5 A 0.50005 0.50005 0 0 0 5.5 3 L 0.5 3 z M 1 4 L 5 4 L 5 12 L 1 12 L 1 4 z "
     style="color:#000000;font-style:normal;font-variant:normal;font-weight:normal;font-stretch:normal;font-size:medium;line-height:normal;font-family:sans-serif;font-variant-ligatures:normal;font-variant-position:normal;font-variant-caps:normal;font-variant-numeric:normal;font-variant-alternates:normal;font-variant-east-asian:normal;font-feature-settings:normal;font-variation-settings:normal;text-indent:0;text-align:start;text-decoration:none;text-decoration-line:none;text-decoration-style:solid;text-decoration-color:#000000;letter-spacing:normal;word-spacing:normal;text-transform:none;writing-mode:lr-tb;direction:ltr;text-orientation:mixed;dominant-baseline:auto;baseline-shift:baseline;text-anchor:start;white-space:normal;shape-padding:0;shape-margin:0;inline-size:0;clip-rule:nonzero;display:inline;overflow:visible;visibility:visible;isolation:auto;mix-blend-mode:normal;color-interpolation:sRGB;color-interpolation-filters:linearRGB;solid-color:#000000;solid-opacity:1;vector-effect:none;fill:#555761;fill-opacity:1;fill-rule:nonzero;stroke:none;stroke-width:1;stroke-linecap:butt;stroke-linejoin:round;stroke-miterlimit:3;stroke-dasharray:none;stroke-dashoffset:0;stroke-opacity:1;color-rendering:auto;image-rendering:auto;shape-rendering:auto;text-rendering:auto;enable-background:accumulate;stop-color:#000000;stop-opacity:1;opacity:1" />
  <path
     id="rect935-6"
     d="m 6.5,0 h -2 v 16 h 2 z"
     style="opacity:1;vector-effect:none;fill:#555761;fill-opacity:1;stroke:none;stroke-width:1;stroke-linecap:butt;stroke-linejoin:miter;stroke-miterlimit:4;stroke-dasharray:none;stroke-dashoffset:0;stroke-opacity:1;marker:none;paint-order:normal" />
</svg>

<svg
        xmlns='http://www.w3.org/2000/svg'
        xmlns:svg='http://www.w3.org/2000/svg'
        width='16'
        height='16'>
  <path
          opacity='1'
          fill='url(#gpa:foreground) #555761'
          fill-opacity='0.1'
          fill-rule='nonzero'
          stroke-miterlimit='3'
          d='M 14.5 13.5 L 9.5 13.5 L 9.5 2.5 L 14.5 2.5 Z'
          class="foreground">
  </path>
  <path
          color='rgb(0,0,0)'
          fill='url(#gpa:foreground) #555761'
          fill-opacity='1'
          fill-rule='nonzero'
          shape-rendering='auto'
          image-rendering='auto'
          d='M 9.5 2 A 0.50005 0.50005 0 0 0 9 2.5 L 9 13.5 A 0.50005 0.50005 0 0 0 9.5 14 L 14.5 14 A 0.50005 0.50005 0 0 0 15 13.5 L 15 2.5 A 0.50005 0.50005 0 0 0 14.5 2 L 9.5 2 Z M 10 3 L 14 3 L 14 13 L 10 13 L 10 3 Z'
          class="foreground"
          style='mix-blend-mode: normal; isolation: auto'>
  </path>
  <path
          fill='url(#gpa:foreground) #555761'
          fill-opacity='1'
          fill-rule='nonzero'
          paint-order='normal'
          d='M 15.5 2e-08 L 13.5 2e-08 L 13.5 16 L 15.5 16 Z'
          class="foreground">
  </path>
  <path
          opacity='1'
          fill='url(#gpa:foreground) #555761'
          fill-opacity='0.1'
          fill-rule='nonzero'
          stroke-miterlimit='3'
          d='M 5.5 12.5 L 0.5 12.5 L 0.5 3.5 L 5.5 3.5 Z'
          class="foreground">
  </path>
  <path
          color='rgb(0,0,0)'
          fill='url(#gpa:foreground) #555761'
          fill-opacity='1'
          fill-rule='nonzero'
          shape-rendering='auto'
          image-rendering='auto'
          d='M 0.5 3 A 0.50005 0.50005 0 0 0 0 3.5 L 0 12.5 A 0.50005 0.50005 0 0 0 0.5 13 L 5.5 13 A 0.50005 0.50005 0 0 0 6 12.5 L 6 3.5 A 0.50005 0.50005 0 0 0 5.5 3 L 0.5 3 Z M 1 4 L 5 4 L 5 12 L 1 12 L 1 4 Z'
          class="foreground"
          style='mix-blend-mode: normal; isolation: auto'>
  </path>
  <path
          fill='url(#gpa:foreground) #555761'
          fill-opacity='1'
          fill-rule='nonzero'
          paint-order='normal'
          d='M 6.5 0 L 4.5 0 L 4.5 16 L 6.5 16 Z'
          class="foreground">
  </path>
</svg>
